src/card_system/max/american_express.svg

<svg viewBox="0 0 84 40" fill="none" xmlns="http://www.w3.org/2000/svg">
<path d="M0 9.6C0 6.23969 0 4.55953 0.653961 3.27606C1.2292 2.14708 2.14708 1.2292 3.27606 0.653961C4.55953 0 6.23969 0 9.6 0H74.4C77.7603 0 79.4405 0 80.7239 0.653961C81.8529 1.2292 82.7708 2.14708 83.346 3.27606C84 4.55953 84 6.23969 84 9.6V30.4C84 33.7603 84 35.4405 83.346 36.7239C82.7708 37.8529 81.8529 38.7708 80.7239 39.346C79.4405 40 77.7603 40 74.4 40H9.6C6.23968 40 4.55953 40 3.27606 39.346C2.14708 38.7708 1.2292 37.8529 0.653961 36.7239C0 35.4405 0 33.7603 0 30.4V9.6Z" fill="#016FD0"/>
<path fill-rule="evenodd" clip-rule="evenodd" d="M19.9668 21.7695V33.1825H31.8044L33.1002 31.4561L34.3765 33.1825H41.5259V30.5401H43.1331C44.5276 30.5401 45.1727 30.1114 45.1727 30.1114V33.1825H49.8946V31.3834L51.3356 33.1825H75.2778C75.4469 33.181 75.613 33.1667 75.7741 33.143C76.7786 33.026 77.6498 32.6165 78.2945 31.9177C79.0495 31.0994 79.3578 30.0389 79.3578 29.0113C79.3578 28.0447 79.0762 27.0258 78.3108 26.2454C78.2402 26.1734 78.167 26.105 78.0914 26.0402L80.0785 21.7729L34.4775 21.7695L33.1572 23.4597L31.8791 21.7695H19.9668Z" fill="white"/>
<path d="M8.74277 6.8125H13.3884L14.9129 10.3712V6.8125H20.6879L21.5954 9.38461L22.4752 6.8125H48.3988V8.10559C48.3988 8.10559 49.7616 6.8125 52.0012 6.8125L60.4125 6.84232L61.9106 10.3544V6.8125H66.7434L68.0735 8.82993V6.8125H72.9507V18.2254H68.0735L66.7988 16.2014V18.2254H59.6984L58.9844 16.4263H57.0756L56.3731 18.2254H51.5579C49.6307 18.2254 48.3988 16.9587 48.3988 16.9587V18.2254H41.1386L39.6976 16.4263V18.2254H12.7002L11.9866 16.4263H10.0839L9.37537 18.2254H6.05649H3.92188L8.74277 6.8125Z" fill="white"/>
<path d="M9.69352 8.21875L6.07031 16.7644H8.42921L9.09773 15.0532H12.9842L13.6493 16.7644H16.0601L12.4404 8.21875H9.69352ZM11.034 10.2076L12.2187 13.1979H9.84593L11.034 10.2076Z" fill="#016FD0"/>
<path d="M16.3105 16.7644V8.21875L19.6627 8.23138L21.6124 13.7411L23.5154 8.21875H26.8407V16.7644H24.7347V10.4676L22.5022 16.7644H20.6552L18.4166 10.4676V16.7644H16.3105Z" fill="#016FD0"/>
<path d="M28.2812 16.7644V8.21875H35.1536V10.1303H30.4095V11.592H35.0427V13.3911H30.4095V14.9091H35.1536V16.7644H28.2812Z" fill="#016FD0"/>
<path d="M36.373 8.21875V16.7644H38.4791V13.7284H39.3658L41.891 16.7644H44.4647L41.6936 13.616C42.8308 13.5186 44.004 12.5285 44.004 10.9912C44.004 9.19287 42.6126 8.21875 41.0597 8.21875H36.373ZM38.4791 10.1303H40.8865C41.464 10.1303 41.8841 10.5885 41.8841 11.0298C41.8841 11.5975 41.3398 11.9294 40.9177 11.9294H38.4791V10.1303Z" fill="#016FD0"/>
<path d="M47.0136 16.7644H44.8633V8.21875H47.0136V16.7644Z" fill="#016FD0"/>
<path d="M52.1126 16.7644H51.6484C49.4026 16.7644 48.0391 14.9695 48.0391 12.5267C48.0391 10.0235 49.3873 8.21875 52.2234 8.21875H54.5511V10.2427H52.1383C50.987 10.2427 50.1728 11.1541 50.1728 12.5478C50.1728 14.2028 51.1038 14.8978 52.4451 14.8978H52.9993L52.1126 16.7644Z" fill="#016FD0"/>
<path d="M56.6955 8.21875L53.0723 16.7644H55.4312L56.0997 15.0532H59.9861L60.6512 16.7644H63.0621L59.4423 8.21875H56.6955ZM58.036 10.2076L59.2206 13.1979H56.8479L58.036 10.2076Z" fill="#016FD0"/>
<path d="M63.3086 16.7644V8.21875H65.9862L69.405 13.5879V8.21875H71.511V16.7644H68.9201L65.4146 11.2547V16.7644H63.3086Z" fill="#016FD0"/>
<path d="M21.4082 31.7175V23.1719H28.2805V25.0834H23.5364V26.5452H28.1697V28.3442H23.5364V29.8622H28.2805V31.7175H21.4082Z" fill="#016FD0"/>
<path d="M55.082 31.7175V23.1719H61.9543V25.0834H57.2102V26.5452H61.8213V28.3442H57.2102V29.8622H61.9543V31.7175H55.082Z" fill="#016FD0"/>
<path d="M28.5484 31.7175L31.8945 27.4974L28.4688 23.1719H31.1221L33.1623 25.8459L35.2094 23.1719H37.7588L34.3781 27.4447L37.7304 31.7175H35.0775L33.0965 29.0856L31.1636 31.7175H28.5484Z" fill="#016FD0"/>
<path d="M37.9785 23.1758V31.7214H40.14V29.0228H42.3568C44.2326 29.0228 45.6544 28.0133 45.6544 26.0501C45.6544 24.4238 44.5393 23.1758 42.6305 23.1758H37.9785ZM40.14 25.1084H42.4746C43.0806 25.1084 43.5138 25.4852 43.5138 26.0923C43.5138 26.6626 43.0828 27.0761 42.4677 27.0761H40.14V25.1084Z" fill="#016FD0"/>
<path d="M46.5703 23.1719V31.7175H48.6763V28.6816H49.5631L52.0883 31.7175H54.6619L51.8908 28.5691C53.0281 28.4718 54.2012 27.4816 54.2012 25.9443C54.2012 24.146 52.8098 23.1719 51.2569 23.1719H46.5703ZM48.6763 25.0834H51.0837C51.6612 25.0834 52.0813 25.5416 52.0813 25.9829C52.0813 26.5507 51.537 26.8825 51.1149 26.8825H48.6763V25.0834Z" fill="#016FD0"/>
<path d="M62.9315 31.7175V29.8622H67.1463C67.77 29.8622 68.04 29.5203 68.04 29.1454C68.04 28.7861 67.7708 28.4229 67.1463 28.4229H65.2417C63.5861 28.4229 62.6641 27.3997 62.6641 25.8635C62.6641 24.4933 63.5084 23.1719 65.9686 23.1719H70.0698L69.1831 25.0946H65.6361C64.958 25.0946 64.7493 25.4556 64.7493 25.8002C64.7493 26.1545 65.0072 26.5452 65.5252 26.5452H67.5204C69.366 26.5452 70.1668 27.6071 70.1668 28.9978C70.1668 30.4929 69.2744 31.7175 67.4199 31.7175H62.9315Z" fill="#016FD0"/>
<path d="M70.66 31.7175V29.8622H74.8748C75.4984 29.8622 75.7685 29.5203 75.7685 29.1454C75.7685 28.7861 75.4993 28.4229 74.8748 28.4229H72.9702C71.3146 28.4229 70.3926 27.3997 70.3926 25.8635C70.3926 24.4933 71.2369 23.1719 73.6971 23.1719H77.7983L76.9115 25.0946H73.3646C72.6865 25.0946 72.4778 25.4556 72.4778 25.8002C72.4778 26.1545 72.7357 26.5452 73.2537 26.5452H75.2489C77.0945 26.5452 77.8953 27.6071 77.8953 28.9978C77.8953 30.4929 77.0029 31.7175 75.1484 31.7175H70.66Z" fill="#016FD0"/>
</svg>

<svg xmlns="http://www.w3.org/2000/svg" viewBox="0 0 84 40"><defs><style>.cls-1{fill:#016fd0;}.cls-2,.cls-3{fill:#fff;}.cls-2{fill-rule:evenodd;}</style></defs><rect class="cls-1" width="84" height="40"/><path class="cls-2" d="M20,21.77V33.18H31.8l1.3-1.72,1.28,1.72h7.15V30.54h1.6a3.89,3.89,0,0,0,2-.43v3.07h4.72v-1.8l1.45,1.8H75.28a2.63,2.63,0,0,0,.49,0,3.9,3.9,0,0,0,2.52-1.22A4.22,4.22,0,0,0,79.36,29a3.88,3.88,0,0,0-1-2.77,2.09,2.09,0,0,0-.22-.2l2-4.27H34.48l-1.32,1.69-1.28-1.69Z"/><path class="cls-3" d="M8.74,6.81h4.65l1.52,3.56V6.81h5.78l.91,2.57.88-2.57H48.4v1.3A5.52,5.52,0,0,1,52,6.81l8.41,0,1.5,3.51V6.81h4.83l1.33,2v-2H73V18.23H68.07l-1.27-2v2H59.7L59,16.43h-1.9l-.71,1.8H51.56A4.72,4.72,0,0,1,48.4,17v1.27H41.14l-1.44-1.8v1.8h-27L12,16.43H10.08l-.7,1.8H3.92Z"/><path class="cls-1" d="M9.69,8.22,6.07,16.76H8.43l.67-1.71H13l.67,1.71h2.41L12.44,8.22Zm.16,5,1.18-3,1.19,3Z"/><polygon class="cls-1" points="24.73 10.47 24.73 16.76 26.84 16.76 26.84 8.22 23.52 8.22 21.61 13.74 19.66 8.23 16.31 8.22 16.31 16.76 18.42 16.76 18.42 10.47 20.66 16.76 22.5 16.76 24.73 10.47"/><polygon class="cls-1" points="35.15 14.91 30.41 14.91 30.41 13.39 35.04 13.39 35.04 11.59 30.41 11.59 30.41 10.13 35.15 10.13 35.15 8.22 28.28 8.22 28.28 16.76 35.15 16.76 35.15 14.91"/><path class="cls-1" d="M38.48,13.73h.89l2.52,3h2.57l-2.77-3.14A2.59,2.59,0,0,0,44,11a2.74,2.74,0,0,0-2.94-2.77H36.37v8.54h2.11Zm0-3.6h2.41a1,1,0,0,1,1,.9,1,1,0,0,1-1,.9H38.48Z"/><rect class="cls-1" x="44.86" y="8.22" width="2.15" height="8.55"/><path class="cls-1" d="M51.65,16.76h.46L53,14.9h-.55a2.08,2.08,0,0,1-2.28-2.35,2,2,0,0,1,2-2.31h2.41v-2H52.22C49.39,8.22,48,10,48,12.53S49.4,16.76,51.65,16.76Z"/><path class="cls-1" d="M55.43,16.76l.67-1.71H60l.66,1.71h2.41L59.44,8.22H56.7l-3.63,8.54ZM58,10.21l1.18,3H56.85Z"/><polygon class="cls-1" points="65.42 11.26 68.92 16.76 71.51 16.76 71.51 8.22 69.41 8.22 69.41 13.59 65.99 8.22 63.31 8.22 63.31 16.76 65.42 16.76 65.42 11.26"/><polygon class="cls-1" points="21.41 31.72 28.28 31.72 28.28 29.86 23.54 29.86 23.54 28.34 28.17 28.34 28.17 26.55 23.54 26.55 23.54 25.08 28.28 25.08 28.28 23.17 21.41 23.17 21.41 31.72"/><polygon class="cls-1" points="55.08 31.72 61.95 31.72 61.95 29.86 57.21 29.86 57.21 28.34 61.82 28.34 61.82 26.55 57.21 26.55 57.21 25.08 61.95 25.08 61.95 23.17 55.08 23.17 55.08 31.72"/><polygon class="cls-1" points="35.21 23.17 33.16 25.85 31.12 23.17 28.47 23.17 31.89 27.5 28.55 31.72 31.16 31.72 33.1 29.09 35.08 31.72 37.73 31.72 34.38 27.45 37.76 23.17 35.21 23.17"/><path class="cls-1" d="M42.63,23.18H38v8.54h2.16V29h2.22c1.87,0,3.29-1,3.29-3A2.78,2.78,0,0,0,42.63,23.18Zm-.16,3.9H40.14v-2h2.33a1,1,0,0,1,1,1A1,1,0,0,1,42.47,27.08Z"/><path class="cls-1" d="M54.2,25.94a2.74,2.74,0,0,0-2.94-2.77H46.57v8.55h2.11v-3h.88l2.53,3h2.57l-2.77-3.15A2.59,2.59,0,0,0,54.2,25.94Zm-3.09.94H48.68v-1.8h2.4a1,1,0,0,1,1,.9A1,1,0,0,1,51.11,26.88Z"/><path class="cls-1" d="M67.52,26.54h-2a.74.74,0,0,1-.78-.74c0-.34.21-.7.89-.7h3.54l.89-1.93H66c-2.46,0-3.31,1.32-3.31,2.69a2.37,2.37,0,0,0,2.58,2.56h1.91c.62,0,.89.37.89.73s-.27.71-.89.71H62.93v1.86h4.49A2.55,2.55,0,0,0,70.17,29,2.33,2.33,0,0,0,67.52,26.54Z"/><path class="cls-1" d="M75.25,26.54h-2a.74.74,0,0,1-.77-.74c0-.34.21-.7.88-.7h3.55l.89-1.93H73.7c-2.46,0-3.31,1.32-3.31,2.69A2.37,2.37,0,0,0,73,28.42h1.9c.63,0,.9.37.9.73s-.27.71-.9.71H70.66v1.86h4.49A2.55,2.55,0,0,0,77.9,29,2.34,2.34,0,0,0,75.25,26.54Z"/></svg>
